assets/images/icons/cursors/cursor_hold.svg

<svg fill="none" height="100" viewBox="0 0 100 100" width="100" xmlns="http://www.w3.org/2000/svg"><path d="m60 11h-16v6h-9v5h-5v12h-5v5h-5v5h-5v10h5v10h5v5h5v15h5v5h25v-5h5v5h15v-20h5v-43h-5v-5h-10v-5h-10z" fill="#fff"/><path clip-rule="evenodd" d="m60 11h-16v6h-9v5h-5v12h-5v5h-5v5h-5v10h5v10h5v5h5v15h5v5h25v-5h5v5h15v-20h5v-43h-5v-5h-10v-5h-10zm-3 5h-8v19h-5v-13h-9v26h-5v-9h-5v5h-5v10h5v10h5v5h5v15h25v-5h5v5h10v-15h5v-43h-6v15h-5v-20h-7v14h-5z" fill="#000" fill-rule="evenodd"/></svg>

<svg width="100" height="100" viewBox="0 0 100 100" fill="none" xmlns="http://www.w3.org/2000/svg">
<path d="M60 11H44V17H35V22H30V34H25V39H20V44H15V54H20V64H25V69H30V84H35V89H60V84H65V89H80V69H85V26H80V21H70V16H60V11Z" fill="white"/>
<path fill-rule="evenodd" clip-rule="evenodd" d="M60 11H44V17H35V22H30V34H25V39H20V44H15V54H20V64H25V69H30V84H35V89H60V84H65V89H80V69H85V26H80V21H70V16H60V11ZM57 16H49V35H44V22H35V48H30V39H25V44H20V54H25V64H30V69H35V84H60V79H65V84H75V69H80V26H74V41H69V21H62V35H57V16Z" fill="black"/>
</svg>
